packages/ndla-icons/svg/action/CursorClick.svg

<svg xmlns="http://www.w3.org/2000/svg" data-license="Apache License 2.0" data-source="Material Design" width="32" height="32" viewBox="0 0 32 32">
    <path d="M15.3332 14.6667L23.8398 21.8267L22.6665 22.0667L21.8132 22.2267C20.9732 22.4 20.4932 23.3333 20.8665 24.0933L21.2265 24.8667L23.0398 28.7867L21.1465 29.6667L19.3332 25.76L18.9865 24.9867C18.9039 24.8031 18.7803 24.6409 18.6251 24.5128C18.4699 24.3846 18.2873 24.2938 18.0914 24.2474C17.8955 24.201 17.6916 24.2003 17.4954 24.2452C17.2992 24.2902 17.116 24.3796 16.9598 24.5067L16.2798 25.04L15.3332 25.8V14.6667ZM14.3465 11.5867C14.0778 11.5867 13.82 11.6934 13.63 11.8835C13.4399 12.0735 13.3332 12.3312 13.3332 12.6V27.8667C13.3332 28.4267 13.7865 28.88 14.3465 28.88C14.5998 28.88 14.8132 28.8 14.9865 28.6667L17.5332 26.6L19.7465 31.4267C19.9198 31.7867 20.2798 32 20.6665 32C20.8132 32 20.9598 32 21.1065 31.8933L24.7865 30.1867C25.2932 29.9467 25.5332 29.3333 25.2665 28.84L23.0398 24L26.2532 23.4C26.4739 23.3426 26.6731 23.2222 26.8265 23.0533C27.1865 22.6267 27.1332 22 26.6665 21.6133L15.0132 11.8133L14.9998 11.8267C14.8175 11.6716 14.5859 11.5866 14.3465 11.5867ZM19.9998 13.3333V10.6667H26.6665V13.3333H19.9998ZM18.4398 6.34667L22.2132 2.57333L24.0932 4.45333L20.3198 8.22667L18.4398 6.34667ZM13.3332 0H15.9998V6.66667H13.3332V0ZM5.23984 19.5467L9.01317 15.7733L10.8932 17.6533L7.11984 21.4267L5.23984 19.5467ZM5.23984 4.45333L7.11984 2.57333L10.8932 6.34667L9.01317 8.22667L5.23984 4.45333ZM9.33317 13.3333H2.6665V10.6667H9.33317V13.3333Z" fill="currentColor"/>
</svg>

<svg xmlns="http://www.w3.org/2000/svg" data-license="Apache License 2.0" data-source="Material Design" viewBox="0 0 32 32">
  <path fill="currentColor" d="m15.3 14.7 8.5 7.1-1.1.3-.9.1c-.8.2-1.3 1.1-1 1.9l.4.8 1.8 3.9-1.9.9-1.8-4-.3-.7a1.3 1.3 0 0 0-2-.5l-.7.5-1 .8V14.7Zm-1-3.1a1 1 0 0 0-1 1v15.3c0 .5.5 1 1 1l.7-.2 2.5-2.1 2.2 4.8c.2.4.6.6 1 .6l.4-.1 3.7-1.7c.5-.3.7-.9.5-1.4L23 24l3.3-.6c.2 0 .4-.2.5-.3.4-.5.3-1.1-.1-1.5L15 11.8a1 1 0 0 0-.7-.2Zm5.7 1.7v-2.6h6.7v2.6H20Zm-1.6-7 3.8-3.7 1.9 1.9-3.8 3.7-1.9-1.9Zm-5-6.3H16v6.7h-2.7V0ZM5.1 19.5 9 15.8l1.9 1.9L7 21.4l-1.9-1.9Zm0-15 2-2 3.7 3.8-1.9 2-3.8-3.8Zm4.1 8.8H2.7v-2.6h6.6v2.6Z"/>
</svg>
